common/resources/fonts/svg/my-org.svg

<?xml version="1.0" encoding="UTF-8"?>
<svg width="1024px" height="1024px" viewBox="0 0 1024 1024" version="1.1" xmlns="http://www.w3.org/2000/svg" xmlns:xlink="http://www.w3.org/1999/xlink">
    <!-- Generator: Sketch 47.1 (45422) - http://www.bohemiancoding.com/sketch -->
    <title>my-org</title>
    <desc>Created with Sketch.</desc>
    <defs></defs>
    <g id="Page-1" stroke="none" stroke-width="1" fill="none" fill-rule="evenodd">
        <g id="my-org" fill="#000000">
            <path d="M82,940 L82,405.655738 L325.983607,405.655738 L325.983607,940 L82,940 Z M943,79 L943,945.040984 L730.270492,945.040984 L730.270492,781.713115 L621.385246,781.713115 L621.385246,945.040984 L408.655738,940 L408.655738,79 L943,79 Z M621.385246,618.385246 L621.385246,509.5 L512.5,509.5 L512.5,618.385246 L621.385246,618.385246 Z M621.385246,346.172131 L621.385246,237.286885 L512.5,237.286885 L512.5,346.172131 L621.385246,346.172131 Z M839.155738,618.385246 L839.155738,509.5 L730.270492,509.5 L730.270492,618.385246 L839.155738,618.385246 Z M839.155738,346.172131 L839.155738,237.286885 L730.270492,237.286885 L730.270492,346.172131 L839.155738,346.172131 Z" id="Mask"></path>
        </g>
    </g>
</svg>

<svg width="1024" height="1024" viewBox="0 0 1024 1024">
    <path d="M82 940V405.656h243.984V940H82zM943 79v866.041H730.27V781.713H621.385v163.328L408.655 940V79H943zM621.385 618.385V509.5H512.5v108.885h108.885zm0-272.213V237.287H512.5v108.885h108.885zm217.77 272.213V509.5H730.27v108.885h108.886zm0-272.213V237.287H730.27v108.885h108.886z" fill-rule="evenodd"/>
</svg>
